cloud-init-light-logo.svg

<svg xmlns="http://www.w3.org/2000/svg" width="1030" height="207" viewBox="0 0 1030 207">
  <g fill="none" fill-rule="evenodd">
    <path fill="#E95420" fill-rule="nonzero" d="M122.487448,117.861959 C125.165644,117.861959 127.331675,120.033325 127.331675,122.706186 C127.331675,125.379046 125.165644,127.545077 122.487448,127.545077 C119.819923,127.545077 117.648557,125.379046 117.648557,122.706186 C117.648557,120.033325 119.819923,117.867294 122.487448,117.867294 L122.487448,117.861959 Z M149.680206,103.254588 L109.016443,103.254588 L50.4269072,64.5381186 L52.8559562,58.685567 L96.9859021,67.7498196 L97.1192784,34.2905103 L119.601186,60.3767784 L156.151624,20.650384 L161.582706,23.8727552 L143.816985,76.2378866 L197.348892,60.7609021 C181.11433,24.9781778 145.044046,0.0266752577 103.254588,0.0266752577 C46.3242526,0.0282928454 0.00533505155,46.3498608 0.00533505155,103.286598 C0.00320103093,134.341933 13.7820387,162.238918 35.5474485,181.178351 L35.5474485,161.465335 C35.5474485,156.114278 39.8805773,151.787552 45.2278995,151.787552 C50.5736211,151.787552 54.9083505,156.119613 54.9083505,161.465335 L54.9083505,194.505309 C57.0156959,195.62567 59.1710567,196.676675 61.3637629,197.65299 L61.3637629,161.465335 C61.3637629,156.114278 65.6958247,151.787552 71.0415464,151.787552 C76.387268,151.787552 80.7193299,156.119613 80.7193299,161.465335 L80.7193299,204.065722 C82.8480155,204.540541 85.0033763,204.95134 87.1747423,205.292784 L87.1747423,161.465335 C87.1747423,156.119613 91.5121392,151.787552 96.8578608,151.787552 C102.203582,151.787552 106.535644,156.119613 106.535644,161.465335 L106.535644,206.391804 C106.535644,206.429149 106.530309,206.46116 106.530309,206.49317 C108.701675,206.423814 110.851701,206.290438 112.985722,206.087706 L112.985722,122.738196 C112.985722,117.392474 117.323119,113.060412 122.66884,113.060412 C128.014562,113.060412 132.346624,117.397809 132.346624,122.738196 L132.346624,202.369175 C175.165747,189.773119 206.51451,150.128351 206.51451,103.286598 C206.51451,91.3840979 204.481856,79.9457474 200.75799,69.2969845 L149.674871,103.254588 L149.680206,103.254588 L149.680206,103.254588 Z"/>
    <path fill="#fff" fill-rule="nonzero" d="M300,182.4 C291.99996,182.4 284.933364,181.133346 278.8,178.6 C272.666636,176.066654 267.566687,172.433357 263.5,167.7 C259.433313,162.966643 256.333344,157.300033 254.2,150.7 C252.066656,144.099967 251,136.80004 251,128.8 C251,120.666626 252.099989,113.2667 254.3,106.6 C256.500011,99.9333 259.666646,94.200024 263.8,89.4 C267.933354,84.599976 272.933304,80.900013 278.8,78.3 C284.666696,75.699987 291.26663,74.4 298.6,74.4 C304.200028,74.4 309.433309,74.866662 314.3,75.8 C319.166691,76.733338 322.93332,77.933326 325.6,79.4 L322.2,90.6 C319.53332,89.26666 316.53335,88.200004 313.2,87.4 C309.86665,86.599996 305.400028,86.2 299.8,86.2 C288.333276,86.2 279.633363,89.899963 273.7,97.3 C267.766637,104.700037 264.8,115.199932 264.8,128.8 C264.8,134.933364 265.46666,140.566641 266.8,145.7 C268.13334,150.833359 270.299985,155.233315 273.3,158.9 C276.300015,162.566685 280.166643,165.433323 284.9,167.5 C289.633357,169.566677 295.399966,170.6 302.2,170.6 C307.800028,170.6 312.499981,169.966673 316.3,168.7 C320.100019,167.433327 322.866658,166.333338 324.6,165.4 L327.4,176.6 C324.999988,177.93334 321.233359,179.233327 316.1,180.5 C310.966641,181.766673 305.600028,182.4 300,182.4 Z M370.9,182 C366.499978,181.866666 362.666683,181.300005 359.4,180.3 C356.133317,179.299995 353.400011,177.766677 351.2,175.7 C348.999989,173.633323 347.333339,170.966683 346.2,167.7 C345.066661,164.433317 344.5,160.333358 344.5,155.4 L344.5,27.4 L357.5,25 L357.5,155 C357.5,158.200016 357.799997,160.766657 358.4,162.7 C359.000003,164.633343 359.899994,166.166661 361.1,167.3 C362.300006,168.433339 363.866657,169.266664 365.8,169.8 C367.733343,170.333336 370.03332,170.799998 372.7,171.2 L370.9,182 Z M479.4,128.6 C479.4,136.733374 478.233345,144.1333 475.9,150.8 C473.566655,157.4667 470.300021,163.13331 466.1,167.8 C461.899979,172.46669 456.933362,176.099987 451.2,178.7 C445.466638,181.300013 439.133368,182.6 432.2,182.6 C425.266632,182.6 418.933362,181.300013 413.2,178.7 C407.466638,176.099987 402.500021,172.46669 398.3,167.8 C394.099979,163.13331 390.833345,157.4667 388.5,150.8 C386.166655,144.1333 385,136.733374 385,128.6 C385,120.466626 386.166655,113.0667 388.5,106.4 C390.833345,99.7333 394.099979,94.033357 398.3,89.3 C402.500021,84.566643 407.466638,80.900013 413.2,78.3 C418.933362,75.699987 425.266632,74.4 432.2,74.4 C439.133368,74.4 445.466638,75.699987 451.2,78.3 C456.933362,80.900013 461.899979,84.566643 466.1,89.3 C470.300021,94.033357 473.566655,99.7333 475.9,106.4 C478.233345,113.0667 479.4,120.466626 479.4,128.6 Z M465.6,128.6 C465.6,115.666602 462.60003,105.366705 456.6,97.7 C450.59997,90.033295 442.466718,86.2 432.2,86.2 C421.933282,86.2 413.80003,90.033295 407.8,97.7 C401.79997,105.366705 398.8,115.666602 398.8,128.6 C398.8,141.533398 401.79997,151.799962 407.8,159.4 C413.80003,167.000038 421.933282,170.8 432.2,170.8 C442.466718,170.8 450.59997,167.000038 456.6,159.4 C462.60003,151.799962 465.6,141.533398 465.6,128.6 Z M582.5,176.6 C578.633314,177.666672 573.433366,178.86666 566.9,180.2 C560.366634,181.53334 552.366714,182.2 542.9,182.2 C535.166628,182.2 528.700026,181.066678 523.5,178.8 C518.299974,176.533322 514.100016,173.333354 510.9,169.2 C507.699984,165.066646 505.400007,160.066696 504,154.2 C502.599993,148.333304 501.9,141.866702 501.9,134.8 L501.9,76.8 L514.9,76.8 L514.9,130.6 C514.9,137.93337 515.433328,144.133308 516.5,149.2 C517.566672,154.266692 519.299988,158.366651 521.7,161.5 C524.100012,164.633349 527.199981,166.899993 531,168.3 C534.800019,169.700007 539.433306,170.4 544.9,170.4 C551.033364,170.4 556.366644,170.06667 560.9,169.4 C565.433356,168.73333 568.299994,168.133336 569.5,167.6 L569.5,76.8 L582.5,76.8 L582.5,176.6 Z M694.6,177 C690.733314,178.33334 685.80003,179.599994 679.8,180.8 C673.79997,182.000006 666.200046,182.6 657,182.6 C649.399962,182.6 642.500031,181.366679 636.3,178.9 C630.099969,176.433321 624.766689,172.86669 620.3,168.2 C615.833311,163.53331 612.366679,157.8667 609.9,151.2 C607.433321,144.5333 606.2,137.000042 606.2,128.6 C606.2,120.733294 607.233323,113.500033 609.3,106.9 C611.366677,100.299967 614.39998,94.600024 618.4,89.8 C622.40002,84.999976 627.299971,81.26668 633.1,78.6 C638.900029,75.93332 645.533296,74.6 653,74.6 C659.800034,74.6 665.699975,75.566657 670.7,77.5 C675.700025,79.433343 679.333322,81.266658 681.6,83 L681.6,27.4 L694.6,25 L694.6,177 Z M681.6,95.6 C680.399994,94.666662 678.900009,93.666672 677.1,92.6 C675.299991,91.533328 673.200012,90.533338 670.8,89.6 C668.399988,88.666662 665.800014,87.900003 663,87.3 C660.199986,86.699997 657.266682,86.4 654.2,86.4 C647.799968,86.4 642.433355,87.533322 638.1,89.8 C633.766645,92.066678 630.26668,95.099981 627.6,98.9 C624.93332,102.700019 623.000006,107.166641 621.8,112.3 C620.599994,117.433359 620,122.866638 620,128.6 C620,142.200068 623.399966,152.633297 630.2,159.9 C637.000034,167.166703 645.999944,170.8 657.2,170.8 C663.600032,170.8 668.766647,170.500003 672.7,169.9 C676.633353,169.299997 679.59999,168.66667 681.6,168 L681.6,95.6 Z M712.9,116 L758.1,116 L758.1,128.6 L712.9,128.6 L712.9,116 Z M789.4,180.2 L776.4,180.2 L776.4,76.8 L789.4,76.8 L789.4,180.2 Z M792.4,45.6 C792.4,48.666682 791.466676,51.099991 789.6,52.9 C787.733324,54.700009 785.46668,55.6 782.8,55.6 C780.13332,55.6 777.866676,54.700009 776,52.9 C774.133324,51.099991 773.2,48.666682 773.2,45.6 C773.2,42.533318 774.133324,40.100009 776,38.3 C777.866676,36.499991 780.13332,35.6 782.8,35.6 C785.46668,35.6 787.733324,36.499991 789.6,38.3 C791.466676,40.100009 792.4,42.533318 792.4,45.6 Z M819.3,80.4 C823.166686,79.333328 828.366634,78.13334 834.9,76.8 C841.433366,75.46666 849.433286,74.8 858.9,74.8 C866.766706,74.8 873.333307,75.933322 878.6,78.2 C883.866693,80.466678 888.066651,83.699979 891.2,87.9 C894.333349,92.100021 896.56666,97.133304 897.9,103 C899.23334,108.866696 899.9,115.333298 899.9,122.4 L899.9,180.2 L886.9,180.2 L886.9,126.6 C886.9,119.26663 886.400005,113.066692 885.4,108 C884.399995,102.933308 882.733345,98.800016 880.4,95.6 C878.066655,92.399984 875.000019,90.100007 871.2,88.7 C867.399981,87.299993 862.633362,86.6 856.9,86.6 C850.766636,86.6 845.466689,86.93333 841,87.6 C836.533311,88.26667 833.63334,88.866664 832.3,89.4 L832.3,180.2 L819.3,180.2 L819.3,80.4 Z M941.6,180.2 L928.6,180.2 L928.6,76.8 L941.6,76.8 L941.6,180.2 Z M944.6,45.6 C944.6,48.666682 943.666676,51.099991 941.8,52.9 C939.933324,54.700009 937.66668,55.6 935,55.6 C932.33332,55.6 930.066676,54.700009 928.2,52.9 C926.333324,51.099991 925.4,48.666682 925.4,45.6 C925.4,42.533318 926.333324,40.100009 928.2,38.3 C930.066676,36.499991 932.33332,35.6 935,35.6 C937.66668,35.6 939.933324,36.499991 941.8,38.3 C943.666676,40.100009 944.6,42.533318 944.6,45.6 Z M983.7,76.8 L1024.9,76.8 L1024.9,87.8 L983.7,87.8 L983.7,142.8 C983.7,148.666696 984.199995,153.433315 985.2,157.1 C986.200005,160.766685 987.633324,163.59999 989.5,165.6 C991.366676,167.60001 993.63332,168.93333 996.3,169.6 C998.96668,170.26667 1001.89998,170.6 1005.1,170.6 C1010.56669,170.6 1014.96665,169.966673 1018.3,168.7 C1021.63335,167.433327 1024.23332,166.266672 1026.1,165.2 L1029.3,176 C1027.43332,177.200006 1024.16669,178.566659 1019.5,180.1 C1014.83331,181.633341 1009.76669,182.4 1004.3,182.4 C997.899968,182.4 992.533355,181.566675 988.2,179.9 C983.866645,178.233325 980.400013,175.700017 977.8,172.3 C975.199987,168.899983 973.366672,164.666692 972.3,159.6 C971.233328,154.533308 970.7,148.533368 970.7,141.6 L970.7,46.4 L983.7,44 L983.7,76.8 Z"/>
  </g>
</svg>

<?xml version="1.0" encoding="utf-8"?>
<!-- Generator: Adobe Illustrator 27.3.1, SVG Export Plug-In . SVG Version: 6.00 Build 0)  -->
<svg version="1.1" id="Layer_1" xmlns="http://www.w3.org/2000/svg" xmlns:xlink="http://www.w3.org/1999/xlink" x="0px" y="0px"
	 viewBox="0 0 1030 207" style="enable-background:new 0 0 1030 207;" xml:space="preserve">
<style type="text/css">
	.st0{fill:#FFFFFF;}
	.st1{fill:#E95420;}
</style>
<circle class="st0" cx="103.3" cy="103.3" r="103"/>
<g>
	<path class="st1" d="M122.5,117.9c2.7,0,4.8,2.2,4.8,4.8s-2.2,4.8-4.8,4.8c-2.7,0-4.8-2.2-4.8-4.8S119.8,117.9,122.5,117.9
		L122.5,117.9z M149.7,103.3H109L50.4,64.5l2.4-5.9L97,67.7l0.1-33.5l22.5,26.1l36.6-39.7l5.4,3.2l-17.8,52.4l53.5-15.5
		C181.1,25,145,0,103.3,0C46.3,0,0,46.3,0,103.3c0,31.1,13.8,59,35.5,77.9v-19.7c0-5.4,4.3-9.7,9.7-9.7c5.3,0,9.7,4.3,9.7,9.7v33
		c2.1,1.1,4.3,2.2,6.5,3.1v-36.2c0-5.4,4.3-9.7,9.7-9.7c5.3,0,9.7,4.3,9.7,9.7V204c2.1,0.5,4.3,0.9,6.5,1.2v-43.8
		c0-5.3,4.3-9.7,9.7-9.7c5.3,0,9.7,4.3,9.7,9.7v44.9v0.1c2.2-0.1,4.3-0.2,6.5-0.4v-83.3c0-5.3,4.3-9.7,9.7-9.7
		c5.4,0,9.7,4.3,9.7,9.7v79.6c42.8-12.6,74.2-52.2,74.2-99.1c0-11.9-2-23.3-5.8-34L149.7,103.3L149.7,103.3L149.7,103.3z"/>
	<path class="st0" d="M300,182.4c-8,0-15.1-1.3-21.2-3.8s-11.2-6.2-15.3-10.9s-7.2-10.4-9.3-17s-3.2-13.9-3.2-21.9
		c0-8.1,1.1-15.5,3.3-22.2s5.4-12.4,9.5-17.2c4.1-4.8,9.1-8.5,15-11.1s12.5-3.9,19.8-3.9c5.6,0,10.8,0.5,15.7,1.4
		c4.9,0.9,8.6,2.1,11.3,3.6l-3.4,11.2c-2.7-1.3-5.7-2.4-9-3.2c-3.3-0.8-7.8-1.2-13.4-1.2c-11.5,0-20.2,3.7-26.1,11.1
		s-8.9,17.9-8.9,31.5c0,6.1,0.7,11.8,2,16.9c1.3,5.1,3.5,9.5,6.5,13.2s6.9,6.5,11.6,8.6s10.5,3.1,17.3,3.1c5.6,0,10.3-0.6,14.1-1.9
		c3.8-1.3,6.6-2.4,8.3-3.3l2.8,11.2c-2.4,1.3-6.2,2.6-11.3,3.9S305.6,182.4,300,182.4z M370.9,182c-4.4-0.1-8.2-0.7-11.5-1.7
		s-6-2.5-8.2-4.6s-3.9-4.7-5-8s-1.7-7.4-1.7-12.3v-128l13-2.4v130c0,3.2,0.3,5.8,0.9,7.7s1.5,3.5,2.7,4.6s2.8,2,4.7,2.5
		c1.9,0.5,4.2,1,6.9,1.4L370.9,182z M479.4,128.6c0,8.1-1.2,15.5-3.5,22.2s-5.6,12.3-9.8,17s-9.2,8.3-14.9,10.9
		c-5.7,2.6-12.1,3.9-19,3.9s-13.3-1.3-19-3.9c-5.7-2.6-10.7-6.2-14.9-10.9c-4.2-4.7-7.5-10.3-9.8-17s-3.5-14.1-3.5-22.2
		s1.2-15.5,3.5-22.2s5.6-12.4,9.8-17.1c4.2-4.7,9.2-8.4,14.9-11c5.7-2.6,12.1-3.9,19-3.9s13.3,1.3,19,3.9s10.7,6.3,14.9,11
		c4.2,4.7,7.5,10.4,9.8,17.1S479.4,120.5,479.4,128.6z M465.6,128.6c0-12.9-3-23.2-9-30.9s-14.1-11.5-24.4-11.5s-18.4,3.8-24.4,11.5
		s-9,18-9,30.9s3,23.2,9,30.8s14.1,11.4,24.4,11.4s18.4-3.8,24.4-11.4S465.6,141.5,465.6,128.6z M582.5,176.6
		c-3.9,1.1-9.1,2.3-15.6,3.6s-14.5,2-24,2c-7.7,0-14.2-1.1-19.4-3.4s-9.4-5.5-12.6-9.6c-3.2-4.1-5.5-9.1-6.9-15s-2.1-12.3-2.1-19.4
		v-58h13v53.8c0,7.3,0.5,13.5,1.6,18.6s2.8,9.2,5.2,12.3s5.5,5.4,9.3,6.8s8.4,2.1,13.9,2.1c6.1,0,11.5-0.3,16-1s7.4-1.3,8.6-1.8
		V76.8h13V176.6z M694.6,177c-3.9,1.3-8.8,2.6-14.8,3.8s-13.6,1.8-22.8,1.8c-7.6,0-14.5-1.2-20.7-3.7s-11.5-6-16-10.7
		s-7.9-10.3-10.4-17s-3.7-14.2-3.7-22.6c0-7.9,1-15.1,3.1-21.7s5.1-12.3,9.1-17.1c4-4.8,8.9-8.5,14.7-11.2s12.4-4,19.9-4
		c6.8,0,12.7,1,17.7,2.9s8.6,3.8,10.9,5.5V27.4l13-2.4V177z M681.6,95.6c-1.2-0.9-2.7-1.9-4.5-3s-3.9-2.1-6.3-3
		c-2.4-0.9-5-1.7-7.8-2.3c-2.8-0.6-5.7-0.9-8.8-0.9c-6.4,0-11.8,1.1-16.1,3.4s-7.8,5.3-10.5,9.1c-2.7,3.8-4.6,8.3-5.8,13.4
		s-1.8,10.6-1.8,16.3c0,13.6,3.4,24,10.2,31.3s15.8,10.9,27,10.9c6.4,0,11.6-0.3,15.5-0.9c3.9-0.6,6.9-1.2,8.9-1.9L681.6,95.6
		L681.6,95.6z M712.9,116h45.2v12.6h-45.2V116z M789.4,180.2h-13V76.8h13V180.2z M792.4,45.6c0,3.1-0.9,5.5-2.8,7.3
		c-1.9,1.8-4.1,2.7-6.8,2.7s-4.9-0.9-6.8-2.7c-1.9-1.8-2.8-4.2-2.8-7.3s0.9-5.5,2.8-7.3c1.9-1.8,4.1-2.7,6.8-2.7s4.9,0.9,6.8,2.7
		S792.4,42.5,792.4,45.6z M819.3,80.4c3.9-1.1,9.1-2.3,15.6-3.6c6.5-1.3,14.5-2,24-2c7.9,0,14.4,1.1,19.7,3.4s9.5,5.5,12.6,9.7
		s5.4,9.2,6.7,15.1s2,12.3,2,19.4v57.8h-13v-53.6c0-7.3-0.5-13.5-1.5-18.6s-2.7-9.2-5-12.4c-2.3-3.2-5.4-5.5-9.2-6.9
		s-8.6-2.1-14.3-2.1c-6.1,0-11.4,0.3-15.9,1s-7.4,1.3-8.7,1.8v90.8h-13L819.3,80.4L819.3,80.4z M941.6,180.2h-13V76.8h13V180.2z
		 M944.6,45.6c0,3.1-0.9,5.5-2.8,7.3c-1.9,1.8-4.1,2.7-6.8,2.7s-4.9-0.9-6.8-2.7c-1.9-1.8-2.8-4.2-2.8-7.3s0.9-5.5,2.8-7.3
		c1.9-1.8,4.1-2.7,6.8-2.7s4.9,0.9,6.8,2.7C943.7,40.1,944.6,42.5,944.6,45.6z M983.7,76.8h41.2v11h-41.2v55
		c0,5.9,0.5,10.6,1.5,14.3s2.4,6.5,4.3,8.5c1.9,2,4.1,3.3,6.8,4s5.6,1,8.8,1c5.5,0,9.9-0.6,13.2-1.9c3.3-1.3,5.9-2.4,7.8-3.5
		l3.2,10.8c-1.9,1.2-5.1,2.6-9.8,4.1s-9.7,2.3-15.2,2.3c-6.4,0-11.8-0.8-16.1-2.5s-7.8-4.2-10.4-7.6c-2.6-3.4-4.4-7.6-5.5-12.7
		c-1.1-5.1-1.6-11.1-1.6-18V46.4l13-2.4L983.7,76.8L983.7,76.8z"/>
</g>
</svg>
